X:1
T:O Lord, give thy Holy Sp'rit - Tallis
T:James Gibb editions
T:#
%%score [ 1 2 3 4 ]
L:1/8
Q:1/4=75
M:2/2
K:D
V:1 treble nm="Soprano" snm="S"
V:2 treble nm="Alto" snm="A"
V:3 treble-8 nm="Tenor" snm="T"
V:4 bass nm="Bass" snm="B"
V:1
"^O Lord, give thy Holy Sp'rit""^Thomas Tallis\n(1505-85)" B4 B2 d2- | d2 c2 B4- | B2 ^A2 B2 B2 | %3
w: O Lord, give|* thy Ho\-|* ly Sp'rit in-|
 d2 (c2 edcB) |[M:2/2] ^A4 z2 F2 | A2 AB c2 c2 | d4 c2 c2 | d3 d c2 B2- | B2 A2 B2 BB | ^A4 z4 | %10
w: to our * * * *|hearts, and|light- en our un- der-|stand- ing, that|we may dwell in|* the fear of thy|Name,|
 z4 Bc d2 | c2 (B3 c ^A2) | B2 z2 z2 B2- | BB !>!A2 G2 F2 | F4 z4 | z2 f4 f2 | e2 d4 c2 | %17
w: in the fear|of thy * *|Name all|* the days of our|life,|all the|days of our|
[M:2/2] d2 d2 d2 A2 |: d4 c2 c2 | d2 B2 c4 | B4 z2 A2 | d2 B2 c4 | B2 B4 ^A2 | B2 B2 e2 c2 | %24
w: life: that we may|know thee, the|on- ly true|God, and|Je- sus Christ|whom thou hast|sent, and Je- sus|
 d4 c2 B2- | B(c ^A2) B2 B2 | B6 B2 |1 B2 B2 B4- | B2 B2 B4 | z2 d2 d2 A2 :|2 %30
w: Christ whom thou|* hast * sent, and|Je- sus|Christ whom thou|* hast sent.|that we may|
[Q:1/4=74] B2[Q:1/4=72] B2[Q:1/4=69] B4- |[Q:1/4=67] B2[Q:1/4=65] B2[Q:1/4=65] !fermata!B4 |] %32
w: Christ whom thou|* hast sent.|
V:2
 z4 F4 | F2 G4 G2 | F3 E D2 G2- | GF (F3 G E2) |[M:2/2] F4 z2 F2 | F2 F^G A2 A2 | B4 A2 F2 | %7
w: O|Lord, give thy|Ho- ly Sp'rit in\-|* to our * *|hearts, and|light- en our un- der-|stand- ing, that|
 F3 ^G !>!A2 =G2- | GF !>!F3 D E2 | F4 z4 | F^G =A2 =G2 F2 | E2 DE F2 FF | ^D2 F3 F !>!E2 | %13
w: we may dwell in|* the fear of thy|Name,|in the fear of thy|Name, in the fear of thy|Name all the days|
 F2 F2 ^D4 | z2 A3 A !>!A2 | F2 B2 A2 AA | BA (GF A4) |[M:2/2] F4 z2 F2 |: F2 F2 F4 | F2 F2 A2 F2 | %20
w: of our life,|all the days|of our life, all the|days of our * *|life: that|we may know|thee, the on- ly|
 F4 F4 | D2 !>!G2 E2 !>!A2 | F2 G2 (F3 E) | ^D4 E2 A2 | F2 B2 A2 G2 | (F3 E) ^D4 | z2 B,2 E2 =D2 |1 %27
w: true God,|and Je- sus Christ|whom thou hast *|sent, and Je-|sus Christ whom thou|hast * sent,|and Je- sus|
 G3 F E4- | E2 (^DC) D4 | z4 z2 F2 :|2 G3 F E4- | E2 (^DC) !fermata!D4 |] %32
w: Christ whom thou|* hast * sent.|that|Christ whom thou|* hast * sent.|
V:3
 z4 d4 | d2 e4 e2 | c2 c2 B4- | B2 ^A2 B2 B2 |[M:2/2][K:treble-8] c2 F2 =A2 AB | cc d3 c c2 | %6
w: O|Lord, give thy|Ho- ly Sp'rit|* in- to our|hearts, and light- en our|un- der- stand- ing, our|
 B2 B2 c4 | B4 z2 B2 | d2 c2 B2 Bc | d2 c3 (B- B2 | B2 ^A2) B4 | z2 Bc d2 cc | B2 z2 z2 Bc | %13
w: un- der- stand-|ing, that|we may dwell in the|fear of thy *|* * Name,|in the fear of thy|Name, in the|
 d2 cc B4 | z2 f3 f !>!e2 | d2 d2 d2 ff | gf (ed e4) |[M:2/2][K:treble-8] d4 z2 F2 |: F2 B2 ^A4 | %19
w: fear of thy Name|all the days|of our life, all the|days of our * *|life: that|we may know|
 B4 z2 c2 | d2 B2 c4 | B4 z2 A2 | d2 B2 d2 c2 | B2 B2 A4 | A2 !>!dB c2 d2 | c(B c2) B2 F2 | %26
w: thee, the|on- ly true|God, and|Je- sus Christ whom|thou hast sent,|and Je- sus Christ whom|thou hast * sent, and|
 G2 F2 B4 |1 G2 (d2- dc BA | G2) (FE) F4 | z4 z2 F2 :|2 G2 (d2- dc BA | G2) (FE) !fermata!F4 |] %32
w: Je- sus Christ|whom thou * * * *|* hast * sent.|that|whom thou * * * *|* hast * sent.|
V:4
 z4 B,4 | B,2 E,4 E,2 | F,2 F,2"^\" B,,4- | B,,2 F,2 G,2 G,2 |[M:2/2] F,8 | z2 F,2 F,2 F,E, | %6
w: O|Lord, give thy|Ho- ly Sp'rit|* in- to our|hearts,|and light- en our|
 D,2 B,,2 F,4 | B,,4 z2 B,,2 | F,4 G,4 | F,4 E,F, G,2 | F,2 F,2 B,,4 | E,F, G,2 F,2 F,2 | %12
w: un- der- stand-|ing, that|we may|dwell in the fear|of thy Name,|in the fear of thy|
 B,,2 F,^G, A,2 =G,G, | F,4 z2 B,2- | B,B, !>!A,2 D,2 A,,2 | B,,4 D,2 D,2 | G,2 B,2 A,4 | %17
w: Name, in the fear of thy|Name all|* the days of our|life, all the|days of our|
[M:2/2] D,4 z2 D,2 |: D,2 B,,2 F,4 | B,,2 B,,2 A,,2 A,,2 | B,,4 F,4 | z2 E,2 A,2 F,2 | %22
w: life: that|we may know|thee, the on- ly|true God,|and Je- sus|
 B,2 E,2 F,2 F,2 | B,,4 z2 A,,2 | D,2 B,,2 !>!F,2 B,,2 | F,2 F,2 B,,2 B,,2 | E,2 D,2 G,3 F, |1 %27
w: Christ whom thou hast|sent, and|Je- sus Christ whom|thou hast sent, and|Je- sus Christ whom|
 E,2 (B,,2 E,4) | B,,8 | z4 z2 D,2 :|2 E,2 (B,,2 E,4) | !fermata!B,,8 |] %32
w: thou hast *|sent.|that|thou hast *|sent.|

